flutter/assets/search.svg

<svg xmlns="http://www.w3.org/2000/svg" width="32" height="32" style="isolation:isolate" viewBox="204.996 114.353 32 32"><path fill="none" d="M204.996 114.353h32v32h-32v-32Z"/><path fill-rule="evenodd" d="M230.603 139.96a1.341 1.341 0 0 1-1.897 0l-4.994-4.994c-3.144 2.239-7.54 1.949-10.359-.87a8.055 8.055 0 0 1 0-11.386 8.053 8.053 0 0 1 11.386 0c2.819 2.819 3.109 7.215.87 10.358l4.994 4.995a1.341 1.341 0 0 1 0 1.897Zm-17.147-11.547a5.594 5.594 0 0 1 5.591-5.591 5.594 5.594 0 0 1 5.591 5.591 5.594 5.594 0 0 1-5.591 5.592 5.594 5.594 0 0 1-5.591-5.592Z"/></svg>

<?xml version="1.0" encoding="UTF-8" standalone="no"?>
<svg xmlns="http://www.w3.org/2000/svg" xmlns:xlink="http://www.w3.org/1999/xlink" style="isolation:isolate" viewBox="204.996 114.353 32 32" width="32" height="32"><g><path d=" M 204.996 114.353 L 236.996 114.353 L 236.996 146.353 L 204.996 146.353 L 204.996 114.353 Z " fill="none"/><path d=" M 230.603 139.96 L 230.603 139.96 C 230.08 140.484 229.229 140.484 228.706 139.96 L 223.712 134.966 C 220.568 137.205 216.172 136.915 213.353 134.096 C 210.211 130.954 210.211 125.852 213.353 122.71 C 216.495 119.567 221.597 119.567 224.739 122.71 C 227.558 125.529 227.848 129.925 225.609 133.068 L 230.603 138.063 C 231.127 138.586 231.127 139.436 230.603 139.96 Z  M 213.456 128.413 C 213.456 125.328 215.961 122.822 219.047 122.822 C 222.133 122.822 224.638 125.328 224.638 128.413 C 224.638 131.499 222.133 134.005 219.047 134.005 C 215.961 134.005 213.456 131.499 213.456 128.413 Z " fill-rule="evenodd" fill="rgb(0,0,0)"/></g></svg>
